svg/skulls.svg

<?xml version="1.0" encoding="UTF-8" standalone="no"?>
<svg width="180px" height="180px" viewBox="0 0 180 180" version="1.1" xmlns="http://www.w3.org/2000/svg" xmlns:xlink="http://www.w3.org/1999/xlink">
    <!-- Generator: Sketch 40.1 (33804) - http://www.bohemiancoding.com/sketch -->
    <title>skulls</title>
    <desc>Created with Sketch.</desc>
    <defs></defs>
    <g id="Page-1" stroke="none" stroke-width="1" fill="none" fill-rule="evenodd">
        <g id="skulls" fill="#000000">
            <path d="M82.4192642,180.000002 L81.0050506,180.000002 L81.0050506,180.000002 L0,98.994951 L0,97.5807375 L0,96.1665239 L6.16652224,90.0000017 L0,83.8334794 L0,82.4192659 L0,81.0050523 L81.0050506,1.67050098e-06 L82.4192642,1.67050099e-06 L83.8334778,1.67050098e-06 L90,6.16652391 L96.1665222,1.67050098e-06 L97.5807358,1.67050098e-06 L98.9949494,1.67050098e-06 L180,81.0050523 L180,81.0050523 L180,82.4192659 L180,83.8334794 L173.833478,90.0000017 L180,96.1665239 L180,97.5807375 L180,98.994951 L98.9949494,180.000002 L97.5807358,180.000002 L96.1665222,180.000002 L90,173.833479 L83.8334778,180.000002 L82.4192642,180.000002 Z M82.4192642,178.585788 L1.41421356,97.5807375 L8.99494937,90.0000017 L1.41421356,82.4192659 L82.4192642,1.41421523 L90,8.99495104 L97.5807358,1.41421523 L178.585786,82.4192659 L171.005051,90.0000017 L178.585786,97.5807375 L97.5807358,178.585788 L90,171.005052 L82.4192642,178.585788 Z M175.197307,1.67050099e-06 L149.364702,1.67050106e-06 C150.397702,2.92446489 151.981123,5.5885982 153.990436,7.86795695 C152.144683,9.68220869 151,12.2074277 151,15.0000017 C151,20.5228492 155.477153,25.0000017 161,25.0000017 C162.656854,25.0000017 164,26.3431474 164,28.0000012 L164,32.0000017 L165.5,32.0000017 L180,32.0000017 L180,1.67050098e-06 L175.197307,1.67050099e-06 C175.707817,0.882521773 176,1.90714024 176,3.00000167 C176,6.31371017 173.313708,9.00000167 170,9.00000167 C166.686292,9.00000167 164,6.31371017 164,3.00000167 C164,1.90713955 164.292183,0.88252048 164.802694,0 L175.197307,1.67050098e-06 L161.512117,1.67050098e-06 C161.180463,0.938338446 161,1.9480954 161,3.00000167 L161,6.00000167 L161,7.00000167 C156.581722,7.00000167 153,10.5817237 153,15.0000017 C153,19.4182797 156.581722,23.0000017 161,23.0000017 C163.761424,23.0000017 166,25.2385779 166,28.0000017 L166,30.0000017 L170,30.0000017 L170,26.0000017 L172,26.0000017 L172,30.0000017 L176,30.0000017 L176,26.0000017 L178,26.0000017 L178,30.0000017 L180,30.0000017 L180,1.67050098e-06 L175.197307,1.67050098e-06 C175.197307,1.67050097e-06 175.197307,1.67050098e-06 175.197307,1.67050099e-06 Z M159.414065,1.67050098e-06 C159.144334,0.953665257 159,1.95997792 159,3.00000167 L159,5.2000379 C157.75058,5.45365681 156.585749,5.94021907 155.552812,6.61241873 C153.836646,4.68221348 152.455172,2.44776929 151.499407,1.67050104e-06 L159.414065,1.67050104e-06 L159.414065,1.67050098e-06 Z M180,17.0000017 L177,17.0000017 L179.142857,7.00000167 L180,7.00000167 L180,17.0000017 Z M149.364702,180.000002 C148.480897,177.497918 148,174.805272 148,172.000002 C148,158.745168 158.748237,148.000002 171.990549,148.000002 L180,148.000002 L180,180.000002 L149.364702,180.000002 Z M161.512117,180.000002 C162.012605,178.583993 162.857396,177.330627 163.945902,176.340494 L162.600547,174.860604 L162.600547,174.860604 C161.101711,176.223983 159.98095,177.995716 159.414065,180.000002 L151.499407,180.000002 C150.531329,177.520699 150,174.822541 150,172.000002 C150,159.849737 159.840593,150.000002 172.001088,150.000002 L180,150.000002 L180,180.000002 L161.512117,180.000002 L161.512117,180.000002 Z M175.197307,180.000002 C174.159879,178.206598 172.220847,177.000002 170,177.000002 C167.779153,177.000002 165.840121,178.206598 164.802693,180.000002 L175.197307,180.000002 L175.197307,180.000002 Z M0,148.000002 L8.00945054,148.000002 C21.2590651,148.000002 32,158.742253 32,172.000002 C32,174.805085 31.5186287,177.49777 30.6341186,180.000002 L0,180.000002 L0,148.000002 Z M0,150.000002 L7.99891233,150.000002 C20.1497775,150.000002 30,159.847066 30,172.000002 C30,174.822336 29.4690338,177.520542 28.5013612,180.000002 L20.585935,180.000002 C20.0190504,177.995716 18.8982885,176.223983 17.3994526,174.860604 L16.0540976,176.340494 C17.1426035,177.330627 17.9873955,178.583993 18.4878829,180.000002 L0,180.000002 L0,150.000002 Z M15.1973068,180.000002 C14.1598786,178.206598 12.2208471,177.000002 10,177.000002 C7.77915293,177.000002 5.84012143,178.206598 4.80269317,180.000002 L15.1973068,180.000002 L15.1973068,180.000002 Z M0,32.0000017 L14.5,32.0000017 L16,32.0000017 L16,28.0000017 C16,26.3431474 17.3431458,25.0000017 19,25.0000017 C24.5228475,25.0000017 29,20.5228492 29,15.0000017 C29,12.2064734 27.8545347,9.68048291 26.0076714,7.86609732 C28.016951,5.58704172 29.6006909,2.923513 30.6341186,1.67050106e-06 L0,1.67050098e-06 L0,32.0000017 Z M0,30.0000017 L2,30.0000017 L2,26.0000017 L4,26.0000017 L4,30.0000017 L8,30.0000017 L8,26.0000017 L10,26.0000017 L10,30.0000017 L14,30.0000017 L14,28.0000017 C14,25.2385779 16.2385763,23.0000017 19,23.0000017 C23.418278,23.0000017 27,19.4182797 27,15.0000017 C27,10.5817237 23.418278,7.00000167 19,7.00000167 L19,6.00000167 L19,3.00000164 C19,1.94809538 18.8195373,0.938338437 18.4878829,1.67050075e-06 L0,1.67050092e-06 L0,30.0000017 Z M28.5013612,1.67050121e-06 C27.545943,2.44806193 26.164809,4.68288131 24.4486831,6.61339199 C23.4153756,5.94068871 22.2500231,5.45377919 21,5.2000379 L21,3.00000167 C21,1.95997792 20.8556657,0.953665257 20.585935,1.67050098e-06 L28.5013612,1.67050104e-06 L28.5013612,1.67050121e-06 Z M0,17.0000017 L3,17.0000017 L0.857142857,7.00000167 L0,7.00000167 L0,17.0000017 Z M15.1973059,0 C15.7078168,0.88252048 16,1.90713955 16,3.00000167 C16,6.31371017 13.3137085,9.00000167 10,9.00000167 C6.6862915,9.00000167 4,6.31371017 4,3.00000167 C4,1.90714024 4.29218286,0.882521773 4.80269317,1.67050086e-06 L15.1973117,1.67050098e-06 L15.1973059,0 Z M109,115.000002 C107.343146,115.000002 106,116.343147 106,118.000002 L106,122.000002 L104.5,122.000002 L75.5,122.000002 L74,122.000002 L74,118.000001 C74,116.343147 72.6568542,115.000002 71,115.000002 C65.4771525,115.000002 61,110.522849 61,105.000002 C61,102.207428 62.1446828,99.6822087 63.9904362,97.8679569 C60.2620145,93.6384465 58,88.0841028 58,82.0000017 C58,68.7451677 68.7482369,58.0000017 81.9905495,58.0000017 L98.0094505,58.0000017 C111.259065,58.0000017 122,68.7422533 122,82.0000017 C122,88.082437 119.736692,93.6363995 116.007671,97.8660973 C117.854535,99.6804829 119,102.206473 119,105.000002 C119,110.522849 114.522847,115.000002 109,115.000002 Z M109,113.000002 C106.238576,113.000002 104,115.238578 104,118.000002 L104,120.000002 L100,120.000002 L100,116.000002 L98,116.000002 L98,120.000002 L94,120.000002 L94,116.000002 L92,116.000002 L92,120.000002 L88,120.000002 L88,116.000002 L86,116.000002 L86,120.000002 L82,120.000002 L82,116.000002 L80,116.000002 L80,120.000002 L76,120.000002 L76,118.000002 C76,115.238578 73.7614237,113.000002 71,113.000002 C66.581722,113.000002 63,109.41828 63,105.000002 C63,100.581724 66.581722,97.0000017 71,97.0000017 L71,96.0000017 L71,93.0000017 C71,90.3607029 72.1360839,87.9867507 73.9459024,86.3404943 L72.6005474,84.8606038 L72.6005474,84.8606038 C70.388547,86.8726949 69,89.774192 69,93.0000017 L69,95.2000379 C67.7505798,95.4536568 66.5857486,95.9402191 65.5528122,96.6124187 C62.0983691,92.7271409 60,87.6091785 60,82.0000017 C60,69.8497372 69.8405932,60.0000017 82.0010877,60.0000017 L97.9989123,60.0000017 C110.149778,60.0000017 120,69.8470657 120,82.0000017 C120,87.6089297 117.902946,92.7276095 114.448683,96.613392 C113.415376,95.9406887 112.250023,95.4537792 111,95.2000379 L111,93.0000017 C111,89.774192 109.611453,86.8726949 107.399453,84.8606038 L106.054098,86.3404943 C107.863916,87.9867507 109,90.3607029 109,93.0000016 L109,96.0000017 L109,97.0000017 C113.418278,97.0000017 117,100.581724 117,105.000002 C117,109.41828 113.418278,113.000002 109,113.000002 Z M90.8571429,97.0000017 L93,107.000002 L87,107.000002 L89.1428571,97.0000017 L90.8571429,97.0000017 Z M80,99.0000017 C83.3137085,99.0000017 86,96.3137102 86,93.0000017 C86,89.6862932 83.3137085,87.0000017 80,87.0000017 C76.6862915,87.0000017 74,89.6862932 74,93.0000017 C74,96.3137102 76.6862915,99.0000017 80,99.0000017 Z M100,99.0000017 C103.313708,99.0000017 106,96.3137102 106,93.0000017 C106,89.6862932 103.313708,87.0000017 100,87.0000017 C96.6862915,87.0000017 94,89.6862932 94,93.0000017 C94,96.3137102 96.6862915,99.0000017 100,99.0000017 Z" id="Combined-Shape"></path>
        </g>
    </g>
</svg>

<svg width="180" height="180" xmlns="http://www.w3.org/2000/svg"><path d="M82.42 180h-1.415L0 98.995v-2.828L6.167 90 0 83.833v-2.828L81.005 0h2.828L90 6.167 96.167 0h2.828L180 81.005v2.828L173.833 90 180 96.167v2.828L98.995 180h-2.828L90 173.833 83.833 180H82.42Zm0-1.414L1.413 97.58 8.994 90l-7.58-7.58L82.42 1.413 90 8.995l7.58-7.58 81.006 81.004-7.58 7.581 7.58 7.58-81.005 81.006-7.581-7.58-7.58 7.58ZM175.196 0h-25.832a23.98 23.98 0 0 0 4.625 7.868A9.97 9.97 0 0 0 151 15c0 5.523 4.477 10 10 10a3 3 0 0 1 3 3v4h16V0h-4.803a6 6 0 1 1-10.395 0h10.395-13.685A8.985 8.985 0 0 0 161 3v4a8 8 0 0 0 0 16 5 5 0 0 1 5 5v2h4v-4h2v4h4v-4h2v4h2V0h-4.803Zm-15.783 0c-.27.954-.414 1.96-.414 3v2.2a9.942 9.942 0 0 0-3.447 1.412A21.996 21.996 0 0 1 151.499 0h7.915ZM180 17h-3l2.143-10H180v10Zm-30.635 163a23.975 23.975 0 0 1-1.365-8c0-13.255 10.748-24 23.99-24H180v32h-30.635Zm12.147 0a9.01 9.01 0 0 1 2.434-3.66l-1.345-1.48a11 11 0 0 0-3.187 5.14H151.5a21.948 21.948 0 0 1-1.499-8c0-12.15 9.84-22 22.001-22H180v30h-18.488Zm13.685 0a5.998 5.998 0 0 0-5.197-3 5.998 5.998 0 0 0-5.197 3h10.394ZM0 148h8.01C21.26 148 32 158.742 32 172c0 2.805-.481 5.498-1.366 8H0v-32Zm0 2h7.999C20.149 150 30 159.847 30 172c0 2.822-.531 5.52-1.499 8h-7.915a11 11 0 0 0-3.187-5.14l-1.345 1.48a9.01 9.01 0 0 1 2.434 3.66H0v-30Zm15.197 30A5.998 5.998 0 0 0 10 177a5.998 5.998 0 0 0-5.197 3h10.394ZM0 32h16v-4a3 3 0 0 1 3-3c5.523 0 10-4.477 10-10a9.97 9.97 0 0 0-2.992-7.134A23.988 23.988 0 0 0 30.634 0H0v32Zm0-2h2v-4h2v4h4v-4h2v4h4v-2a5 5 0 0 1 5-5 8 8 0 1 0 0-16V3c0-1.052-.18-2.062-.512-3H0v30ZM28.501 0a21.992 21.992 0 0 1-4.052 6.613A9.942 9.942 0 0 0 21 5.2V3c0-1.04-.144-2.046-.414-3H28.5ZM0 17h3L.857 7H0v10ZM15.197 0A6 6 0 1 1 4.802 0h10.395ZM109 115a3 3 0 0 0-3 3v4H74v-4a3 3 0 0 0-3-3c-5.523 0-10-4.477-10-10a9.97 9.97 0 0 1 2.99-7.132A23.914 23.914 0 0 1 58 82c0-13.255 10.748-24 23.99-24h16.02C111.26 58 122 68.742 122 82a23.912 23.912 0 0 1-5.992 15.866A9.97 9.97 0 0 1 119 105c0 5.523-4.477 10-10 10Zm0-2a5 5 0 0 0-5 5v2h-4v-4h-2v4h-4v-4h-2v4h-4v-4h-2v4h-4v-4h-2v4h-4v-2a5 5 0 0 0-5-5 8 8 0 1 1 0-16v-4a8.977 8.977 0 0 1 2.946-6.66L72.6 84.86A10.972 10.972 0 0 0 69 93v2.2a9.942 9.942 0 0 0-3.447 1.412A21.917 21.917 0 0 1 60 82c0-12.15 9.84-22 22.001-22H98C110.149 60 120 69.847 120 82a21.92 21.92 0 0 1-5.551 14.613A9.942 9.942 0 0 0 111 95.2V93c0-3.226-1.389-6.127-3.6-8.14l-1.346 1.48A8.977 8.977 0 0 1 109 93v4a8 8 0 0 1 0 16ZM90.857 97 93 107h-6l2.143-10h1.714ZM80 99a6 6 0 1 0 0-12 6 6 0 0 0 0 12Zm20 0a6 6 0 1 0 0-12 6 6 0 0 0 0 12Z" fill="#000" fill-rule="evenodd"/></svg>
